h5_client/assets/icon/nickname.svg

<svg height="32" viewBox="0 0 1024 1024" width="32" xmlns="http://www.w3.org/2000/svg"><path d="m450.37644 983.764405v-40.973114h573.62356v40.973114zm-386.581306.573624-63.795134-259.851475 6.432778-11.144684 20.486556-35.687581h.040973l266.775929-463.692702 20.568501-35.687579 102.555698-178.274008 319.918051 185.321383-416.860432 724.568501zm29.62356-51.503199 194.417413-56.542898-242.847631-140.660688zm587.308579-732.476315-248.829706-144.184379-82.028169 142.6274 248.788733 144.143406zm-351.426377 34.130602-266.775928 463.692699 248.788732 144.184382 266.816902-463.733676z"/></svg>

<?xml version="1.0" standalone="no"?><!DOCTYPE svg PUBLIC "-//W3C//DTD SVG 1.1//EN" "http://www.w3.org/Graphics/SVG/1.1/DTD/svg11.dtd"><svg t="1534920421005" class="icon" style="" viewBox="0 0 1024 1024" version="1.1" xmlns="http://www.w3.org/2000/svg" p-id="28900" xmlns:xlink="http://www.w3.org/1999/xlink" width="32" height="32"><defs><style type="text/css"></style></defs><path d="M450.37644 983.764405 450.37644 942.791291 1024 942.791291 1024 983.764405 450.37644 983.764405 450.37644 983.764405ZM63.795134 984.338029 0 724.486554 6.432778 713.34187 6.432778 713.34187 26.919334 677.654289 26.960307 677.654289 293.736236 213.961587 293.736236 213.961587 314.304737 178.274008 314.304737 178.274008 416.860435 0 736.778486 185.321383 319.918054 909.889884 63.795134 984.338029 63.795134 984.338029ZM93.418694 932.83483 287.836107 876.291932 44.988476 735.631244 93.418694 932.83483 93.418694 932.83483ZM680.727273 200.358515 431.897567 56.174136 349.869398 198.801536 598.658131 342.944942 680.727273 200.358515 680.727273 200.358515ZM329.300896 234.489117 62.524968 698.181816 311.3137 842.366198 578.130602 378.632522 329.300896 234.489117 329.300896 234.489117Z" p-id="28901"></path></svg>
